assets/loupe.svg

<svg fill="none" height="33" viewBox="0 0 33 33" width="33" xmlns="http://www.w3.org/2000/svg"><path d="m23.4167 20.6667h-1.4484l-.5133-.495c1.7967-2.09 2.8783-4.8034 2.8783-7.755 0-6.5817-5.335-11.9167-11.9166-11.9167-6.5817 0-11.9167 5.335-11.9167 11.9167 0 6.5816 5.335 11.9166 11.9167 11.9166 2.9516 0 5.665-1.0816 7.755-2.8783l.495.5133v1.4484l9.1666 9.1483 2.7317-2.7317zm-11 0c-4.56503 0-8.25003-3.685-8.25003-8.25 0-4.56503 3.685-8.25003 8.25003-8.25003 4.565 0 8.25 3.685 8.25 8.25003 0 4.565-3.685 8.25-8.25 8.25z" fill="#000"/></svg>

<svg width="33" height="33" viewBox="0 0 33 33" fill="none" xmlns="http://www.w3.org/2000/svg">
<path d="M23.4167 20.6667H21.9683L21.455 20.1717C23.2517 18.0817 24.3333 15.3683 24.3333 12.4167C24.3333 5.835 18.9983 0.5 12.4167 0.5C5.835 0.5 0.5 5.835 0.5 12.4167C0.5 18.9983 5.835 24.3333 12.4167 24.3333C15.3683 24.3333 18.0817 23.2517 20.1717 21.455L20.6667 21.9683V23.4167L29.8333 32.565L32.565 29.8333L23.4167 20.6667ZM12.4167 20.6667C7.85167 20.6667 4.16667 16.9817 4.16667 12.4167C4.16667 7.85167 7.85167 4.16667 12.4167 4.16667C16.9817 4.16667 20.6667 7.85167 20.6667 12.4167C20.6667 16.9817 16.9817 20.6667 12.4167 20.6667Z" fill="black"/>
</svg>
